client/public/img/game/fall/obstacles/hatchet_stump.svg

<?xml version="1.0" encoding="UTF-8" standalone="no"?>
<!-- Created with Inkscape (http://www.inkscape.org/) -->

<svg
   width="38.969288mm"
   height="38.969288mm"
   viewBox="0 0 38.969288 38.969288"
   version="1.1"
   id="svg1"
   xmlns="http://www.w3.org/2000/svg"
   xmlns:svg="http://www.w3.org/2000/svg">
  <defs
     id="defs1" />
  <g
     id="layer1"
     transform="translate(-84.931244,-128.85207)">
    <g
       id="layer1-8"
       transform="matrix(1.3260431,0,0,1.3260431,24.20564,126.92436)"
       style="stroke-width:0.997642;stroke-dasharray:none">
      <path
         style="fill:#6d4a2c;fill-opacity:1;stroke:#2b1e12;stroke-width:0.842599;stroke-linejoin:round;stroke-dasharray:none;stroke-opacity:1"
         id="path1620"
         d="M 14.949099,9.1020719 12.735023,11.524231 11.489719,14.560379 8.2114063,14.707517 5.1839617,15.973835 2.7618029,13.75976 -0.27434587,12.514455 -0.42148325,9.2361427 -1.6878013,6.2086981 0.52627384,3.7865393 1.7715784,0.75039054 5.0498909,0.60325315 8.0773355,-0.66306492 10.499494,1.5510102 13.535643,2.7963148 13.68278,6.0746273 Z"
         transform="matrix(-0.29308171,-1.6314927,1.6314927,-0.29308171,49.942034,29.209065)" />
      <path
         style="fill:none;fill-opacity:1;stroke:#48321e;stroke-width:0.825538;stroke-linejoin:round;stroke-dasharray:none;stroke-opacity:1"
         id="path1620-1"
         d="M 14.949099,9.1020719 12.735023,11.524231 11.489719,14.560379 8.2114063,14.707517 5.1839617,15.973835 2.7618029,13.75976 -0.27434587,12.514455 -0.42148325,9.2361427 -1.6878013,6.2086981 0.52627384,3.7865393 1.7715784,0.75039054 5.0498909,0.60325315 8.0773355,-0.66306492 10.499494,1.5510102 13.535643,2.7963148 13.68278,6.0746273 Z"
         transform="matrix(-0.21367054,-1.189436,1.189436,-0.21367054,52.799601,25.670019)" />
      <path
         style="fill:none;fill-opacity:1;stroke:#48321e;stroke-width:1.3334;stroke-linejoin:round;stroke-dasharray:none;stroke-opacity:1"
         id="path1620-1-1"
         d="M 14.949099,9.1020719 12.735023,11.524231 11.489719,14.560379 8.2114063,14.707517 5.1839617,15.973835 2.7618029,13.75976 -0.27434587,12.514455 -0.42148325,9.2361427 -1.6878013,6.2086981 0.52627384,3.7865393 1.7715784,0.75039054 5.0498909,0.60325315 8.0773355,-0.66306492 10.499494,1.5510102 13.535643,2.7963148 13.68278,6.0746273 Z"
         transform="matrix(-0.1322881,-0.73640576,0.73640576,-0.1322881,55.728103,22.043121)" />
      <path
         style="fill:#48321e;fill-opacity:1;stroke:#48321e;stroke-width:3.50677;stroke-linejoin:round;stroke-dasharray:none;stroke-opacity:1"
         id="path1620-1-1-7"
         d="M 14.949099,9.1020719 12.735023,11.524231 11.489719,14.560379 8.2114063,14.707517 5.1839617,15.973835 2.7618029,13.75976 -0.27434587,12.514455 -0.42148325,9.2361427 -1.6878013,6.2086981 0.52627384,3.7865393 1.7715784,0.75039054 5.0498909,0.60325315 8.0773355,-0.66306492 10.499494,1.5510102 13.535643,2.7963148 13.68278,6.0746273 Z"
         transform="matrix(-0.05030079,-0.28000849,0.28000849,-0.05030079,58.678371,18.389267)" />
    </g>
    <g
       id="g182-6"
       transform="matrix(0.60827008,-0.60827008,0.60827008,0.60827008,-251.91761,922.08029)"
       style="stroke-width:1.53787;stroke-dasharray:none">
      <path
         id="rect164-7"
         style="fill:#805d42;stroke:#34261b;stroke-width:1.53787;stroke-linecap:round;stroke-linejoin:round;stroke-miterlimit:5;stroke-dasharray:none;paint-order:fill markers stroke"
         d="m 934.5155,-352.09793 c 0,0 0.30491,1.65845 -0.54092,3.6813 -0.84584,2.02285 -0.29799,16.26452 -0.62839,23.5401 -0.33844,5.5774 -1.05971,8.69962 -1.05971,8.69962 0,0 -0.58302,-0.0164 -1.60866,-1.042 -1.02563,-1.02563 -1.10689,-1.90464 -1.10689,-1.90464 0,0 1.15237,-2.41949 1.5201,-5.54861 0.36773,-3.12911 0.0935,-27.42577 0.0935,-27.42577 z" />
      <path
         id="rect165-7"
         style="fill:#323232;stroke:#1f1f1f;stroke-width:1.53787;stroke-linecap:round;stroke-miterlimit:5;stroke-dasharray:none;stroke-opacity:1;paint-order:fill markers stroke"
         d="m 930.16205,-356.69534 h 6.32514 v 4.79556 l -6.32514,-2.1e-4 -3.41746,0.73611 c 0,0 -0.79996,-1.4985 -0.79999,-3.13368 -3e-5,-1.63518 0.79999,-3.13389 0.79999,-3.13389 z" />
      <path
         id="rect153-6-9"
         style="fill:#8e8e8e;stroke-width:1.53787;stroke-linecap:square;stroke-miterlimit:5;stroke-dasharray:none;paint-order:fill markers stroke"
         d="m 928.03391,-356.60654 -0.97355,-0.19844 c 0,0 -0.5538,0.63629 -0.5538,2.47092 0,1.83463 0.57861,2.53928 0.57861,2.53928 l 0.89913,-0.19017 c 0,0 -0.44693,-0.46502 -0.44693,-2.34911 0,-1.88409 0.49654,-2.27248 0.49654,-2.27248 z" />
    </g>
    <path
       style="fill:none;fill-opacity:1;fill-rule:evenodd;stroke:#3d2a19;stroke-width:1.32292;stroke-linecap:round;stroke-linejoin:round;stroke-dasharray:none;stroke-opacity:1"
       d="m 91.977344,140.3031 2.78975,1.33646 -0.14937,2.94502 h 3.37075 v 3.65519"
       id="path39" />
  </g>
</svg>

<svg xmlns="http://www.w3.org/2000/svg" width="147.285" height="147.285" viewBox="0 0 38.969 38.969"><g style="stroke-width:.997642;stroke-dasharray:none"><path d="m14.95 9.102-2.215 2.422-1.245 3.036-3.279.148-3.027 1.266-2.422-2.214-3.036-1.246-.147-3.278-1.267-3.027L.526 3.787 1.772.75 5.05.603 8.077-.663 10.5 1.55l3.037 1.245.147 3.279Z" style="fill:#6d4a2c;fill-opacity:1;stroke:#2b1e12;stroke-width:.842599;stroke-linejoin:round;stroke-dasharray:none;stroke-opacity:1" transform="rotate(-100.184 18.141 16.103)scale(2.19806)"/><path d="m14.95 9.102-2.215 2.422-1.245 3.036-3.279.148-3.027 1.266-2.422-2.214-3.036-1.246-.147-3.278-1.267-3.027L.526 3.787 1.772.75 5.05.603 8.077-.663 10.5 1.55l3.037 1.245.147 3.279Z" style="fill:none;fill-opacity:1;stroke:#48321e;stroke-width:.825538;stroke-linejoin:round;stroke-dasharray:none;stroke-opacity:1" transform="rotate(-100.184 18.073 12.171)scale(1.60249)"/><path d="m14.95 9.102-2.215 2.422-1.245 3.036-3.279.148-3.027 1.266-2.422-2.214-3.036-1.246-.147-3.278-1.267-3.027L.526 3.787 1.772.75 5.05.603 8.077-.663 10.5 1.55l3.037 1.245.147 3.279Z" style="fill:none;fill-opacity:1;stroke:#48321e;stroke-width:1.3334;stroke-linejoin:round;stroke-dasharray:none;stroke-opacity:1" transform="scale(-.99214)rotate(79.816 9.813 -21.697)"/><path d="m14.95 9.102-2.215 2.422-1.245 3.036-3.279.148-3.027 1.266-2.422-2.214-3.036-1.246-.147-3.278-1.267-3.027L.526 3.787 1.772.75 5.05.603 8.077-.663 10.5 1.55l3.037 1.245.147 3.279Z" style="fill:#48321e;fill-opacity:1;stroke:#48321e;stroke-width:3.50677;stroke-linejoin:round;stroke-dasharray:none;stroke-opacity:1" transform="matrix(-.0667 -.3713 .3713 -.0667 17.084 22.457)"/></g><g style="stroke-width:1.53787;stroke-dasharray:none"><path d="M934.516-352.098s.304 1.659-.541 3.681c-.846 2.023-.298 16.265-.629 23.54-.338 5.578-1.06 8.7-1.06 8.7s-.583-.016-1.608-1.042-1.107-1.905-1.107-1.905 1.152-2.419 1.52-5.548.094-27.426.094-27.426z" style="fill:#805d42;stroke:#34261b;stroke-width:1.53787;stroke-linecap:round;stroke-linejoin:round;stroke-miterlimit:5;stroke-dasharray:none;paint-order:fill markers stroke" transform="scale(.86022)rotate(-45 917.304 933.741)"/><path d="M930.162-356.695h6.325v4.795h-6.325l-3.417.736s-.8-1.498-.8-3.134.8-3.133.8-3.133z" style="fill:#323232;stroke:#1f1f1f;stroke-width:1.53787;stroke-linecap:round;stroke-miterlimit:5;stroke-dasharray:none;stroke-opacity:1;paint-order:fill markers stroke" transform="scale(.86022)rotate(-45 917.304 933.741)"/><path d="m928.034-356.607-.974-.198s-.553.636-.553 2.47c0 1.836.578 2.54.578 2.54l.9-.19s-.448-.465-.448-2.35c0-1.883.497-2.272.497-2.272" style="fill:#8e8e8e;stroke-width:1.53787;stroke-linecap:square;stroke-miterlimit:5;stroke-dasharray:none;paint-order:fill markers stroke" transform="scale(.86022)rotate(-45 917.304 933.741)"/></g><path d="m91.977 140.303 2.79 1.337-.15 2.945h3.371v3.655" style="fill:none;fill-opacity:1;fill-rule:evenodd;stroke:#3d2a19;stroke-width:1.32292;stroke-linecap:round;stroke-linejoin:round;stroke-dasharray:none;stroke-opacity:1" transform="translate(-84.931 -128.852)"/></svg>
